Assets/CourseSource/TipsAndtricks/Lut_Files/Sources/UnityLog_And_ACES_Photoshop.CUBE
#Created by: Adobe Photoshop Export Color Lookup Plugin
TITLE "LUT_Post_1.psd"
#LUT size
LUT_3D_SIZE 8
#data domain
#LUT data points
DOMAIN_MIN 0.000000 0.000000 0.000000
DOMAIN_MAX 0.903226 0.903226 0.903226
0.000000 0.000000 0.000000
0.000791 0.000016 0.000017
0.011844 0.000257 0.000255
0.075400 0.001774 0.001618
0.355536 0.008622 0.007919
0.719507 0.023706 0.020182
0.892063 0.077933 0.057814
0.951105 0.217498 0.158953
0.000028 0.000533 0.000028
0.000554 0.000554 0.000040
0.011919 0.000869 0.000293
0.075737 0.002466 0.001671
0.355910 0.009684 0.007993
0.719657 0.025648 0.020314
0.892240 0.081445 0.058055
0.951308 0.221672 0.159254
0.000697 0.012981 0.000697
0.001324 0.013018 0.000716
0.013460 0.013460 0.001015
0.082842 0.014900 0.002532
0.360695 0.024048 0.008910
0.721124 0.045137 0.021559
0.893761 0.111655 0.060076
0.952917 0.254674 0.161642
0.005224 0.098204 0.005224
0.005951 0.098252 0.005247
0.018174 0.098736 0.005558
0.101200 0.101207 0.007454
0.392504 0.113046 0.014359
0.728653 0.142935 0.027408
0.899418 0.223612 0.067422
0.957990 0.358636 0.169338
0.023891 0.438734 0.023891
0.025118 0.438791 0.023930
0.040073 0.439350 0.024344
0.127358 0.441968 0.026487
0.451320 0.451343 0.034415
0.760821 0.471755 0.048153
0.915192 0.523587 0.088943
0.969566 0.593848 0.189864
0.055171 0.782055 0.055171
0.057475 0.782105 0.055243
0.078739 0.782571 0.055872
0.177456 0.784685 0.058533
0.490500 0.791409 0.067164
0.799029 0.799052 0.082396
0.936143 0.808914 0.131631
0.981785 0.823684 0.233319
0.154954 0.935486 0.154954
0.158964 0.935568 0.155079
0.191266 0.936223 0.156081
0.297217 0.938370 0.159393
0.562858 0.943771 0.168714
0.817717 0.949113 0.187236
0.952570 0.952584 0.242216
0.993117 0.955192 0.352592
0.362190 0.984312 0.362190
0.365783 0.984384 0.362302
0.394004 0.984953 0.363186
0.478549 0.986657 0.365947
0.650625 0.990136 0.372965
0.838408 0.993986 0.388557
0.957919 0.996645 0.429705
0.997933 0.997939 0.506254
0.000002 0.000002 0.000496
0.000511 0.000013 0.000511
0.011812 0.000260 0.000815
0.075729 0.001781 0.002220
0.355881 0.008660 0.008464
0.719561 0.023910 0.020199
0.892086 0.078311 0.057844
0.951128 0.217952 0.158990
0.000030 0.000530 0.000530
0.000528 0.000528 0.000528
0.011870 0.000872 0.000863
0.075927 0.002471 0.002275
0.356210 0.009727 0.008545
0.719709 0.025868 0.020330
0.892264 0.081830 0.058084
0.951332 0.222125 0.159291
0.000701 0.012988 0.001307
0.001328 0.013026 0.001328
0.013467 0.013468 0.001645
0.082362 0.014908 0.003154
0.360688 0.024121 0.009521
0.721163 0.045443 0.021579
0.893788 0.112092 0.060108
0.952940 0.255118 0.161678
0.005229 0.098209 0.005929
0.005955 0.098258 0.005955
0.018181 0.098748 0.006286
0.101212 0.101220 0.008253
0.392061 0.113139 0.015197
0.728654 0.143410 0.027434
0.899443 0.224068 0.067453
0.958010 0.359038 0.169371
0.023899 0.438745 0.025085
0.025126 0.438802 0.025126
0.040083 0.439361 0.025554
0.127372 0.441980 0.027746
0.451332 0.451355 0.035829
0.760798 0.472074 0.048170
0.915202 0.523849 0.088961
0.969575 0.594037 0.189884
0.055186 0.782064 0.057416
0.057489 0.782116 0.057489
0.078755 0.782581 0.058125
0.177475 0.784695 0.060813
0.490515 0.791419 0.069527
0.799059 0.799071 0.084405
0.936141 0.808960 0.131638
0.981786 0.823725 0.233326
0.154978 0.935503 0.158864
0.158988 0.935584 0.158988
0.191290 0.936239 0.159991
0.297241 0.938386 0.163306
0.562878 0.943787 0.172636
0.817733 0.949130 0.191177
0.952580 0.952590 0.242240
0.993118 0.955198 0.352604
0.362211 0.984326 0.365693
0.365805 0.984399 0.365805
0.394026 0.984967 0.366688
0.478569 0.986672 0.369444
0.650642 0.990151 0.376449
0.838422 0.993999 0.391993
0.957932 0.996659 0.432948
0.997934 0.997940 0.506270
0.000050 0.000050 0.011921
0.000589 0.000062 0.011955
0.012349 0.000319 0.012349
0.079502 0.001882 0.013422
0.359075 0.008750 0.020478
0.720200 0.024127 0.033609
0.892274 0.080775 0.062305
0.951312 0.221573 0.159285
0.000082 0.000616 0.012006
0.000635 0.000635 0.012037
0.012437 0.000933 0.012437
0.079274 0.002561 0.013501
0.359714 0.009815 0.020602
0.720329 0.026098 0.033769
0.892453 0.084343 0.062557
0.951515 0.225739 0.159585
0.000751 0.012968 0.012968
0.001372 0.012945 0.012945
0.012522 0.012522 0.012522
0.080656 0.014965 0.014526
0.362058 0.024200 0.021795
0.721637 0.045752 0.035251
0.893987 0.114929 0.064684
0.953119 0.258656 0.161966
0.005285 0.098235 0.017790
0.006016 0.098290 0.017828
0.018262 0.098828 0.018262
0.101335 0.101340 0.020531
0.388350 0.113396 0.028288
0.728693 0.143927 0.041894
0.899629 0.226989 0.072307
0.958172 0.362253 0.169637
0.023980 0.438855 0.039616
0.025210 0.438913 0.039668
0.040186 0.439472 0.040186
0.127504 0.442092 0.042669
0.451449 0.451470 0.051687
0.760253 0.472466 0.065340
0.915282 0.525494 0.095001
0.969649 0.595532 0.190048
0.055309 0.782156 0.078123
0.057614 0.782207 0.078201
0.078891 0.782674 0.078891
0.177631 0.784788 0.081753
0.490648 0.791514 0.091049
0.799161 0.799173 0.107791
0.936141 0.809241 0.143080
0.981793 0.824048 0.233385
0.155176 0.935632 0.190357
0.159186 0.935713 0.190482
0.191488 0.936367 0.191489
0.297436 0.938515 0.194812
0.563041 0.943915 0.204169
0.817866 0.949257 0.222738
0.952703 0.952708 0.270382
0.993123 0.955242 0.352697
0.362386 0.984438 0.393215
0.365979 0.984511 0.393325
0.394199 0.985079 0.394198
0.478729 0.986784 0.396920
0.650775 0.990261 0.403810
0.838536 0.994108 0.418979
0.958033 0.996759 0.457953
0.997987 0.997990 0.517565
0.000370 0.000370 0.090070
0.000897 0.000383 0.090120
0.011889 0.000628 0.090636
0.093277 0.002410 0.093277
0.378233 0.009288 0.102017
0.722181 0.024389 0.118825
0.892923 0.080868 0.158722
0.951823 0.225680 0.229594
0.000402 0.000923 0.090199
0.000942 0.000942 0.090250
0.011974 0.001223 0.090772
0.093415 0.003071 0.093415
0.377895 0.010309 0.102156
0.722363 0.026345 0.119036
0.893100 0.084434 0.159006
0.952025 0.229838 0.229906
0.001045 0.012541 0.091563
0.001650 0.012577 0.091618
0.012988 0.012988 0.092175
0.094851 0.015237 0.094851
0.376125 0.024538 0.103576
0.724017 0.045886 0.120913
0.894614 0.115022 0.161381
0.953624 0.262674 0.232383
0.005635 0.098380 0.098380
0.006377 0.098440 0.098440
0.018647 0.099040 0.099040
0.101908 0.101908 0.101908
0.383562 0.114153 0.110810
0.729838 0.144298 0.128646
0.900199 0.227218 0.169842
0.958656 0.365933 0.240361
0.024398 0.439369 0.124401
0.025637 0.439426 0.124471
0.040673 0.439987 0.125131
0.128089 0.442611 0.128090
0.451976 0.451992 0.138644
0.758497 0.473449 0.155914
0.915677 0.526050 0.194920
0.970034 0.597430 0.261746
0.055831 0.782571 0.174198
0.058141 0.782622 0.174289
0.079454 0.783090 0.175076
0.178260 0.785207 0.178260
0.491194 0.791935 0.188579
0.799592 0.799603 0.208273
0.936294 0.809754 0.247473
0.982082 0.824681 0.308050
0.155829 0.936055 0.293714
0.159840 0.936137 0.293837
0.192144 0.936792 0.294823
0.298077 0.938938 0.298077
0.563573 0.944335 0.307200
0.818300 0.949672 0.324923
0.953103 0.953108 0.368938
0.993419 0.955589 0.432604
0.362932 0.984776 0.475783
0.366524 0.984848 0.475886
0.394736 0.985416 0.476702
0.479226 0.987119 0.479226
0.651181 0.990592 0.485464
0.838874 0.994429 0.498385
0.958324 0.997048 0.529625
0.998226 0.998228 0.576583
0.001722 0.001722 0.410257
0.002315 0.001739 0.410300
0.013559 0.002010 0.410781
0.095328 0.003833 0.413280
0.422695 0.011098 0.422696
0.735380 0.024584 0.436636
0.894806 0.081452 0.464854
0.953087 0.225197 0.511234
0.001765 0.002344 0.410365
0.002363 0.002363 0.410410
0.013645 0.002653 0.410892
0.095468 0.004525 0.413393
0.422819 0.012030 0.422820
0.735401 0.026452 0.436794
0.894987 0.084990 0.465100
0.953288 0.229367 0.511496
0.002459 0.014220 0.411567
0.003093 0.014255 0.411612
0.014676 0.014676 0.412106
0.096918 0.016959 0.414634
0.424112 0.025736 0.424113
0.735792 0.045666 0.438266
0.896545 0.115360 0.467174
0.954885 0.262309 0.513575
0.007086 0.100452 0.417833
0.007876 0.100513 0.417883
0.020388 0.101119 0.418402
0.103995 0.103995 0.420979
0.430513 0.114572 0.430513
0.739065 0.143967 0.444868
0.902256 0.227172 0.474599
0.959909 0.365915 0.520217
0.025934 0.441217 0.441217
0.027207 0.441275 0.441275
0.042441 0.441839 0.441839
0.130172 0.444467 0.444467
0.453833 0.453833 0.453833
0.756966 0.475826 0.467652
0.917237 0.527253 0.495423
0.971246 0.598331 0.536903
0.057521 0.783898 0.480591
0.059849 0.783950 0.480666
0.081281 0.784419 0.481328
0.180300 0.786539 0.484092
0.492931 0.793255 0.492932
0.800884 0.800893 0.507713
0.936539 0.811203 0.531984
0.983064 0.825861 0.566648
0.157675 0.937130 0.554077
0.161687 0.937211 0.554180
0.193998 0.937865 0.555005
0.299883 0.940008 0.557722
0.565001 0.945391 0.565001
0.819387 0.950697 0.576681
0.954043 0.954048 0.599962
0.994098 0.956415 0.630173
0.364328 0.985471 0.644534
0.367916 0.985543 0.644621
0.396105 0.986111 0.645302
0.480463 0.987809 0.647381
0.652107 0.991270 0.652107
0.839587 0.995083 0.660162
0.958924 0.997641 0.676328
0.998725 0.998727 0.700155
0.003457 0.003458 0.742390
0.004162 0.003478 0.742409
0.016262 0.003778 0.742693
0.099224 0.005641 0.744496
0.425958 0.013037 0.751524
0.759847 0.024003 0.759847
0.900951 0.074264 0.768582
0.954480 0.224423 0.782748
0.003510 0.004197 0.742438
0.004221 0.004221 0.742458
0.016356 0.004543 0.742743
0.099372 0.006487 0.744551
0.426089 0.014115 0.751589
0.759938 0.025647 0.759938
0.901107 0.077671 0.768757
0.954683 0.228590 0.782960
0.004264 0.016961 0.743152
0.005029 0.017000 0.743172
0.017443 0.017443 0.743469
0.100866 0.019770 0.745303
0.427414 0.028594 0.752394
0.760895 0.043529 0.760895
0.902459 0.107162 0.770261
0.956282 0.261509 0.784637
0.009031 0.104421 0.747702
0.009978 0.104485 0.747728
0.023260 0.105107 0.748049
0.108010 0.108010 0.749936
0.433853 0.118589 0.757095
0.765823 0.139012 0.765824
0.907669 0.219784 0.775969
0.961317 0.365104 0.789933
0.028154 0.444475 0.765227
0.029534 0.444535 0.765261
0.045411 0.445110 0.765629
0.134188 0.447751 0.767579
0.457078 0.457078 0.774618
0.783014 0.473188 0.783014
0.921769 0.525138 0.791629
0.972725 0.598247 0.802185
0.060304 0.785439 0.785439
0.062688 0.785492 0.785491
0.084511 0.785968 0.785967
0.184230 0.788099 0.788099
0.495891 0.794786 0.794786
0.802362 0.802362 0.802362
0.936463 0.812867 0.808845
0.984206 0.826967 0.816457
0.161360 0.938230 0.805627
0.165379 0.938311 0.805712
0.197709 0.938964 0.806394
0.303439 0.941103 0.808628
0.567339 0.946455 0.814298
0.820614 0.951717 0.820614
0.954993 0.954997 0.827406
0.994466 0.957350 0.834249
0.367465 0.986270 0.829559
0.371045 0.986342 0.829635
0.399157 0.986908 0.830226
0.483078 0.988596 0.832005
0.653713 0.992033 0.835741
0.840518 0.995819 0.840517
0.959638 0.998332 0.846333
0.999346 0.999349 0.853141
0.006064 0.006064 0.889732
0.007241 0.006100 0.889756
0.021861 0.006494 0.890059
0.108662 0.008586 0.891834
0.433045 0.016386 0.898460
0.761581 0.028456 0.905489
0.910383 0.059666 0.910383
0.956921 0.172633 0.917526
0.006154 0.007297 0.889793
0.007335 0.007335 0.889818
0.021985 0.007746 0.890123
0.108834 0.009892 0.891901
0.433194 0.017863 0.898534
0.761688 0.030438 0.905587
0.910530 0.062687 0.910530
0.957126 0.176906 0.917734
0.007142 0.022682 0.890552
0.008362 0.022733 0.890579
0.023245 0.023245 0.890892
0.110468 0.025716 0.892693
0.434622 0.034703 0.899371
0.762733 0.050153 0.906552
0.911832 0.089409 0.911831
0.958758 0.210957 0.919388
0.012444 0.114103 0.895021
0.013789 0.114175 0.895052
0.029412 0.114852 0.895387
0.117848 0.117848 0.897235
0.441205 0.128453 0.903975
0.767818 0.148947 0.911366
0.917180 0.199381 0.917179
0.963989 0.320052 0.924687
0.032368 0.451584 0.911515
0.034084 0.451650 0.911552
0.051907 0.452259 0.911926
0.144072 0.454953 0.913832
0.464173 0.464173 0.920443
0.784844 0.479991 0.927498
0.932425 0.512462 0.932425
0.976355 0.578979 0.937299
0.066409 0.787090 0.928484
0.068975 0.787146 0.928535
0.092088 0.787648 0.929006
0.193963 0.789821 0.931073
0.502269 0.796435 0.937334
0.803897 0.803898 0.943628
0.947289 0.811458 0.947288
0.987718 0.824674 0.949520
0.170971 0.939061 0.939060
0.175005 0.939143 0.939142
0.207365 0.939797 0.939796
0.312518 0.941923 0.941923
0.572283 0.947191 0.947190
0.821979 0.952377 0.952376
0.955626 0.955626 0.955625
0.993771 0.958143 0.957234
0.375990 0.986928 0.947740
0.379537 0.986999 0.947811
0.407392 0.987559 0.948374
0.489780 0.989217 0.950042
0.657085 0.992585 0.953448
0.841684 0.996324 0.957310
0.960198 0.998813 0.960198
0.999807 0.999808 0.961945
0.012436 0.012437 0.933144
0.014238 0.012493 0.933181
0.032568 0.013021 0.933557
0.125715 0.015437 0.935457
0.445123 0.023778 0.941971
0.763940 0.037546 0.948754
0.911385 0.072602 0.953343
0.958316 0.154439 0.958316
0.012576 0.014324 0.933236
0.014382 0.014382 0.933273
0.032732 0.014924 0.933651
0.125921 0.017384 0.935553
0.445298 0.025869 0.942074
0.764069 0.039984 0.948872
0.911546 0.075928 0.953504
0.958522 0.158680 0.958521
0.013893 0.033568 0.934175
0.015730 0.033636 0.934213
0.034251 0.034251 0.934597
0.127758 0.036948 0.936517
0.446872 0.046163 0.943067
0.765247 0.062465 0.949961
0.912957 0.104917 0.954906
0.960162 0.192620 0.960162
0.019973 0.131528 0.938938
0.021916 0.131613 0.938979
0.040971 0.132368 0.939380
0.135511 0.135511 0.941341
0.453684 0.146086 0.947937
0.770578 0.166487 0.954997
0.918397 0.216792 0.960316
0.965471 0.302398 0.965470
0.041079 0.463622 0.955095
0.043294 0.463697 0.955141
0.063966 0.464355 0.955569
0.161600 0.467128 0.957570
0.476133 0.476134 0.964022
0.787293 0.491412 0.970730
0.933298 0.522749 0.975116
0.978376 0.569171 0.978375
0.077807 0.789248 0.971300
0.080668 0.789310 0.971358
0.106090 0.789858 0.971871
0.211058 0.792090 0.973987
0.512932 0.798569 0.980078
0.805834 0.805834 0.986057
0.947748 0.813290 0.989233
0.990673 0.822190 0.990673
0.188005 0.939780 0.980804
0.192053 0.939862 0.980886
0.224384 0.940516 0.981536
0.328391 0.942620 0.983628
0.580478 0.947732 0.988702
0.823674 0.952786 0.993624
0.956003 0.956004 0.996413
0.997490 0.957883 0.997490
0.390851 0.987421 0.987420
0.394338 0.987491 0.987490
0.421688 0.988041 0.988041
0.501181 0.989640 0.989639
0.662515 0.992889 0.992889
0.843118 0.996547 0.996546
0.960547 0.999012 0.999011
1.000000 1.000000 1.000000
