Assets/CourseSource/TipsAndtricks/Lut_Files/Sources/UnityLog_And_ACES_Photoshop.CUBE
#Created by: Adobe Photoshop Export Color Lookup Plugin
TITLE "LUT_Post_1.psd"
#LUT size
LUT_3D_SIZE 32
#data domain
DOMAIN_MIN 0.0 0.0 0.0
DOMAIN_MAX 1.0 1.0 1.0
#LUT data points
0.000000 0.000000 0.000000
0.000000 0.000000 0.000000
0.000000 0.000000 0.000000
0.000000 0.000000 0.000000
0.000791 0.000016 0.000017
0.002369 0.000048 0.000051
0.004232 0.000087 0.000091
0.007202 0.000153 0.000156
0.011844 0.000257 0.000255
0.019126 0.000427 0.000411
0.030847 0.000706 0.000662
0.048191 0.001122 0.001033
0.075400 0.001774 0.001618
0.117344 0.002768 0.002523
0.177421 0.004192 0.003830
0.256757 0.006113 0.005618
0.355536 0.008622 0.007919
0.463637 0.011636 0.010600
0.563477 0.014980 0.013455
0.649178 0.018844 0.016546
0.719507 0.023706 0.020182
0.776504 0.030439 0.024937
0.823423 0.040297 0.031827
0.861087 0.055132 0.042156
0.892063 0.077933 0.057814
0.917027 0.113443 0.082068
0.937562 0.166345 0.119790
0.951105 0.217498 0.158953
0.951105 0.217498 0.158953
0.951105 0.217498 0.158953
0.951105 0.217498 0.158953
0.951105 0.217498 0.158953
0.000000 0.000000 0.000000
0.000000 0.000000 0.000000
0.000000 0.000000 0.000000
0.000000 0.000000 0.000000
0.000791 0.000016 0.000017
0.002369 0.000048 0.000051
0.004232 0.000087 0.000091
0.007202 0.000153 0.000156
0.011844 0.000257 0.000255
0.019126 0.000427 0.000411
0.030847 0.000706 0.000662
0.048191 0.001122 0.001033
0.075400 0.001774 0.001618
0.117344 0.002768 0.002523
0.177421 0.004192 0.003830
0.256757 0.006113 0.005618
0.355536 0.008622 0.007919
0.463637 0.011636 0.010600
0.563477 0.014980 0.013455
0.649178 0.018844 0.016546
0.719507 0.023706 0.020182
0.776504 0.030439 0.024937
0.823423 0.040297 0.031827
0.861087 0.055132 0.042156
0.892063 0.077933 0.057814
0.917027 0.113443 0.082068
0.937562 0.166345 0.119790
0.951105 0.217498 0.158953
0.951105 0.217498 0.158953
0.951105 0.217498 0.158953
0.951105 0.217498 0.158953
0.951105 0.217498 0.158953
0.000000 0.000000 0.000000
0.000000 0.000000 0.000000
0.000000 0.000000 0.000000
0.000000 0.000000 0.000000
0.000791 0.000016 0.000017
0.002369 0.000048 0.000051
0.004232 0.000087 0.000091
0.007202 0.000153 0.000156
0.011844 0.000257 0.000255
0.019126 0.000427 0.000411
0.030847 0.000706 0.000662
0.048191 0.001122 0.001033
0.075400 0.001774 0.001618
0.117344 0.002768 0.002523
0.177421 0.004192 0.003830
0.256757 0.006113 0.005618
0.355536 0.008622 0.007919
0.463637 0.011636 0.010600
0.563477 0.014980 0.013455
0.649178 0.018844 0.016546
0.719507 0.023706 0.020182
0.776504 0.030439 0.024937
0.823423 0.040297 0.031827
0.861087 0.055132 0.042156
0.892063 0.077933 0.057814
0.917027 0.113443 0.082068
0.937562 0.166345 0.119790
0.951105 0.217498 0.158953
0.951105 0.217498 0.158953
0.951105 0.217498 0.158953
0.951105 0.217498 0.158953
0.951105 0.217498 0.158953
0.000000 0.000000 0.000000
0.000000 0.000000 0.000000
0.000000 0.000000 0.000000
0.000000 0.000000 0.000000
0.000791 0.000016 0.000017
0.002369 0.000048 0.000051
0.004232 0.000087 0.000091
0.007202 0.000153 0.000156
0.011844 0.000257 0.000255
0.019126 0.000427 0.000411
0.030847 0.000706 0.000662
0.048191 0.001122 0.001033
0.075400 0.001774 0.001618
0.117344 0.002768 0.002523
0.177421 0.004192 0.003830
0.256757 0.006113 0.005618
0.355536 0.008622 0.007919
0.463637 0.011636 0.010600
0.563477 0.014980 0.013455
0.649178 0.018844 0.016546
0.719507 0.023706 0.020182
0.776504 0.030439 0.024937
0.823423 0.040297 0.031827
0.861087 0.055132 0.042156
0.892063 0.077933 0.057814
0.917027 0.113443 0.082068
0.937562 0.166345 0.119790
0.951105 0.217498 0.158953
0.951105 0.217498 0.158953
0.951105 0.217498 0.158953
0.951105 0.217498 0.158953
0.951105 0.217498 0.158953
0.000028 0.000533 0.000028
0.000028 0.000533 0.000028
0.000028 0.000533 0.000028
0.000028 0.000533 0.000028
0.000554 0.000554 0.000040
0.001853 0.000603 0.000071
0.003937 0.000652 0.000117
0.007132 0.000738 0.000188
0.011919 0.000869 0.000293
0.019304 0.001065 0.000453
0.031053 0.001365 0.000707
0.048463 0.001794 0.001082
0.075737 0.002466 0.001671
0.117741 0.003501 0.002581
0.177841 0.005006 0.003891
0.257165 0.007042 0.005684
0.355910 0.009684 0.007993
0.463936 0.012849 0.010684
0.563698 0.016385 0.013550
0.649354 0.020486 0.016657
0.719657 0.025648 0.020314
0.776649 0.032717 0.025091
0.823569 0.042913 0.032006
0.861244 0.058138 0.042362
0.892240 0.081445 0.058055
0.917226 0.117471 0.082345
0.937769 0.170562 0.120088
0.951308 0.221672 0.159254
0.951308 0.221672 0.159254
0.951308 0.221672 0.159254
0.951308 0.221672 0.159254
0.951308 0.221672 0.159254
0.000090 0.001689 0.000090
0.000090 0.001689 0.000090
0.000090 0.001689 0.000090
0.000090 0.001689 0.000090
0.000652 0.001712 0.000104
0.001749 0.001749 0.000130
0.003649 0.001803 0.000174
0.007056 0.001897 0.000250
0.012136 0.002043 0.000364
0.019737 0.002265 0.000531
0.031543 0.002578 0.000789
0.049045 0.003022 0.001168
0.076398 0.003731 0.001764
0.118454 0.004831 0.002680
0.178542 0.006426 0.003992
0.257809 0.008574 0.005789
0.356473 0.011355 0.008105
0.464370 0.014701 0.010808
0.564014 0.018466 0.013688
0.649601 0.022859 0.016814
0.719865 0.028392 0.020495
0.776845 0.035832 0.025300
0.823767 0.046441 0.032246
0.861454 0.062160 0.042635
0.892475 0.086100 0.058371
0.917488 0.122778 0.082709
0.938037 0.176057 0.120476
0.951572 0.227095 0.159645
0.951572 0.227095 0.159645
0.951572 0.227095 0.159645
0.951572 0.227095 0.159645
0.951572 0.227095 0.159645
0.000192 0.003594 0.000192
0.000192 0.003594 0.000192
0.000192 0.003594 0.000192
0.000192 0.003594 0.000192
0.000774 0.003621 0.000208
0.001885 0.003663 0.000235
0.003724 0.003724 0.000278
0.007111 0.003826 0.000357
0.012476 0.003984 0.000478
0.020461 0.004228 0.000657
0.032406 0.004527 0.000918
0.050042 0.004968 0.001303
0.077484 0.005697 0.001903
0.119580 0.006845 0.002823
0.179615 0.008527 0.004139
0.258763 0.010795 0.005937
0.357282 0.013730 0.008260
0.464983 0.017275 0.010975
0.564447 0.021299 0.013871
0.649931 0.026032 0.017018
0.720136 0.031946 0.020726
0.777096 0.039797 0.025561
0.824016 0.050881 0.032543
0.861719 0.067214 0.042976
0.892767 0.091900 0.058762
0.917810 0.129303 0.083154
0.938363 0.182702 0.120946
0.951891 0.233633 0.160117
0.951891 0.233633 0.160117
0.951891 0.233633 0.160117
0.951891 0.233633 0.160117
0.951891 0.233633 0.160117
0.000382 0.007122 0.000382
0.000382 0.007122 0.000382
0.000382 0.007122 0.000382
0.000382 0.007122 0.000382
0.000985 0.007154 0.000399
0.002120 0.007203 0.000428
0.003976 0.007270 0.000473
0.007383 0.007383 0.000554
0.012947 0.007553 0.000683
0.021464 0.007808 0.000877
0.033875 0.008035 0.001146
0.051911 0.008464 0.001541
0.079556 0.009212 0.002147
0.121647 0.010427 0.003071
0.181490 0.012223 0.004390
0.260372 0.014642 0.006186
0.358600 0.017775 0.008517
0.465939 0.021576 0.011246
0.565112 0.025921 0.014160
0.650433 0.031030 0.017333
0.720542 0.037368 0.021071
0.777469 0.045721 0.025946
0.824381 0.057411 0.032975
0.862103 0.074561 0.043465
0.893186 0.100235 0.059319
0.918266 0.138529 0.083781
0.938816 0.191972 0.121602
0.952334 0.242726 0.160775
0.952334 0.242726 0.160775
0.952334 0.242726 0.160775
0.952334 0.242726 0.160775
0.952334 0.242726 0.160775
0.000697 0.012981 0.000697
0.000697 0.012981 0.000697
0.000697 0.012981 0.000697
0.000697 0.012981 0.000697
0.001324 0.013018 0.000716
0.002485 0.013074 0.000748
0.004368 0.013150 0.000796
0.007804 0.013274 0.000879
0.013460 0.013460 0.001015
0.022189 0.013573 0.001207
0.035552 0.013741 0.001496
0.054608 0.014146 0.001913
0.082842 0.014900 0.002532
0.125077 0.016176 0.003462
0.184620 0.018102 0.004782
0.263009 0.020697 0.006574
0.360695 0.024048 0.008910
0.467407 0.028121 0.011650
0.566103 0.032798 0.014583
0.651166 0.038307 0.017783
0.721124 0.045137 0.021559
0.777995 0.054091 0.026483
0.824894 0.066588 0.033575
0.862638 0.084774 0.044138
0.893761 0.111655 0.060076
0.918872 0.150796 0.084613
0.939416 0.204229 0.122470
0.952917 0.254674 0.161642
0.952917 0.254674 0.161642
0.952917 0.254674 0.161642
0.952917 0.254674 0.161642
0.952917 0.254674 0.161642
0.001211 0.022484 0.001211
0.001211 0.022484 0.001211
0.001211 0.022484 0.001211
0.001211 0.022484 0.001211
0.001861 0.022527 0.001231
0.003052 0.022551 0.001263
0.004949 0.022566 0.001310
0.008358 0.022584 0.001388
0.013892 0.022612 0.001512
0.022666 0.022667 0.001704
0.036897 0.022828 0.002015
0.057656 0.023206 0.002468
0.087530 0.023952 0.003123
0.130443 0.025286 0.004071
0.189709 0.027345 0.005391
0.267355 0.030106 0.007174
0.364155 0.033667 0.009507
0.469869 0.038004 0.012256
0.567717 0.043031 0.015204
0.652295 0.048999 0.018435
0.721989 0.056430 0.022256
0.778758 0.066202 0.027246
0.825628 0.079751 0.034420
0.863393 0.099242 0.045077
0.894564 0.127589 0.061121
0.919684 0.167244 0.085728
0.940215 0.220518 0.123625
0.953687 0.270471 0.162792
0.953687 0.270471 0.162792
0.953687 0.270471 0.162792
0.953687 0.270471 0.162792
0.953687 0.270471 0.162792
0.002012 0.037422 0.002012
0.002012 0.037422 0.002012
0.002012 0.037422 0.002012
0.002012 0.037422 0.002012
0.002668 0.037443 0.002032
0.003869 0.037472 0.002065
0.005757 0.037510 0.002112
0.009141 0.037567 0.002193
0.014641 0.037645 0.002320
0.023394 0.037760 0.002516
0.037970 0.037972 0.002840
0.060307 0.038353 0.003329
0.093139 0.039110 0.004048
0.138395 0.040526 0.005051
0.197962 0.042753 0.006388
0.274623 0.045711 0.008160
0.369902 0.049524 0.010486
0.473821 0.054189 0.013235
0.570278 0.059662 0.016197
0.654091 0.066240 0.019468
0.723357 0.074482 0.023351
0.779957 0.085301 0.028425
0.826767 0.100213 0.035709
0.864540 0.121266 0.046487
0.895723 0.150624 0.062631
0.920824 0.190307 0.087308
0.941315 0.243002 0.125237
0.954752 0.292311 0.164394
0.954752 0.292311 0.164394
0.954752 0.292311 0.164394
0.954752 0.292311 0.164394
0.954752 0.292311 0.164394
0.003262 0.060936 0.003262
0.003262 0.060936 0.003262
0.003262 0.060936 0.003262
0.003262 0.060936 0.003262
0.003941 0.060967 0.003283
0.005176 0.061012 0.003317
0.007081 0.061069 0.003367
0.010473 0.061159 0.003450
0.015964 0.061282 0.003580
0.024698 0.061459 0.003780
0.039278 0.061746 0.004108
0.062239 0.062243 0.004618
0.097683 0.063119 0.005403
0.147067 0.064667 0.006504
0.209247 0.067028 0.007912
0.285694 0.070224 0.009690
0.378972 0.074359 0.012009
0.480104 0.079444 0.014750
0.574331 0.085485 0.017721
0.656895 0.092819 0.021036
0.725459 0.102021 0.024992
0.781767 0.114000 0.030168
0.828442 0.130217 0.037569
0.866161 0.152255 0.048450
0.897298 0.181821 0.064672
0.922354 0.221204 0.089421
0.942780 0.272881 0.127389
0.956155 0.321070 0.166521
0.956155 0.321070 0.166521
0.956155 0.321070 0.166521
0.956155 0.321070 0.166521
0.956155 0.321070 0.166521
0.005224 0.098204 0.005224
0.005224 0.098204 0.005224
0.005224 0.098204 0.005224
0.005224 0.098204 0.005224
0.005951 0.098252 0.005247
0.007246 0.098322 0.005284
0.009196 0.098407 0.005336
0.012643 0.098550 0.005424
0.018174 0.098736 0.005558
0.026935 0.099004 0.005765
0.041587 0.099448 0.006104
0.064689 0.100107 0.006630
0.101200 0.101207 0.007454
0.154079 0.102915 0.008649
0.221179 0.105320 0.010181
0.300622 0.108651 0.012035
0.392504 0.113046 0.014359
0.489855 0.118498 0.017074
0.580701 0.125036 0.020037
0.661253 0.133005 0.023388
0.728653 0.142935 0.027408
0.784433 0.155622 0.032676
0.830817 0.172265 0.040169
0.868382 0.194360 0.051127
0.899418 0.223612 0.067422
0.924385 0.262119 0.092244
0.944708 0.312155 0.130248
0.957990 0.358636 0.169338
0.957990 0.358636 0.169338
0.957990 0.358636 0.169338
0.957990 0.358636 0.169338
0.957990 0.358636 0.169338
0.008163 0.154104 0.008163
0.008163 0.154104 0.008163
0.008163 0.154104 0.008163
0.008163 0.154104 0.008163
0.008977 0.154167 0.008189
0.010365 0.154255 0.008230
0.012397 0.154369 0.008286
0.015963 0.154543 0.008380
0.021606 0.154792 0.008521
0.030479 0.155152 0.008738
0.045284 0.155704 0.009092
0.068623 0.156517 0.009638
0.105379 0.157720 0.010484
0.159424 0.159435 0.011719
0.230713 0.161784 0.013361
0.316078 0.165003 0.015365
0.410141 0.169318 0.017741
0.503945 0.174780 0.020432
0.590299 0.181415 0.023361
0.667796 0.189500 0.026714
0.733316 0.199499 0.030771
0.788195 0.212167 0.036112
0.834071 0.228604 0.043681
0.871361 0.250177 0.054710
0.902217 0.278447 0.071074
0.927035 0.315316 0.095972
0.947195 0.362719 0.134002
0.960333 0.406560 0.173012
0.960333 0.406560 0.173012
0.960333 0.406560 0.173012
0.960333 0.406560 0.173012
0.960333 0.406560 0.173012
0.012221 0.230247 0.012221
0.012221 0.230247 0.012221
0.012221 0.230247 0.012221
0.012221 0.230247 0.012221
0.013153 0.230311 0.012251
0.014659 0.230400 0.012295
0.016818 0.230514 0.012356
0.020546 0.230688 0.012456
0.026372 0.230937 0.012606
0.035417 0.231295 0.012831
0.050422 0.231842 0.013196
0.074018 0.232648 0.013758
0.111014 0.233839 0.014622
0.165156 0.235532 0.015877
0.237794 0.237810 0.017569
0.328218 0.240824 0.019709
0.427814 0.244776 0.022191
0.521698 0.249791 0.024934
0.603783 0.256105 0.027845
0.677224 0.263943 0.031187
0.739943 0.273645 0.035268
0.793387 0.285865 0.040679
0.838430 0.301569 0.048315
0.875267 0.321983 0.059412
0.905830 0.348520 0.075846
0.930405 0.382644 0.100815
0.950280 0.425251 0.138816
0.963150 0.464051 0.177638
0.963150 0.464051 0.177638
0.963150 0.464051 0.177638
0.963150 0.464051 0.177638
0.963150 0.464051 0.177638
0.017506 0.326901 0.017506
0.017506 0.326901 0.017506
0.017506 0.326901 0.017506
0.017506 0.326901 0.017506
0.018572 0.326964 0.017540
0.020228 0.327051 0.017590
0.022552 0.327163 0.017657
0.026496 0.327332 0.017764
0.032553 0.327574 0.017923
0.041822 0.327923 0.018159
0.057094 0.328454 0.018537
0.081031 0.329238 0.019115
0.118340 0.330397 0.019999
0.172585 0.332041 0.021273
0.245137 0.334246 0.022986
0.337082 0.337103 0.025191
0.441537 0.340682 0.027786
0.539176 0.345017 0.030627
0.620542 0.350513 0.033633
0.690041 0.357661 0.036995
0.749096 0.366642 0.041103
0.800396 0.377892 0.046580
0.844121 0.392104 0.054264
0.880214 0.410163 0.065400
0.910267 0.433058 0.081859
0.934408 0.461785 0.106836
0.953831 0.496752 0.144731
0.966298 0.528009 0.183245
0.966298 0.528009 0.183245
0.966298 0.528009 0.183245
0.966298 0.528009 0.183245
0.966298 0.528009 0.183245
0.023891 0.438734 0.023891
0.023891 0.438734 0.023891
0.023891 0.438734 0.023891
0.023891 0.438734 0.023891
0.025118 0.438791 0.023930
0.026966 0.438870 0.023986
0.029505 0.438974 0.024059
0.033722 0.439128 0.024175
0.040073 0.439350 0.024344
0.049628 0.439673 0.024591
0.065259 0.440163 0.024984
0.089648 0.440890 0.025582
0.127358 0.441968 0.026487
0.181712 0.443493 0.027781
0.254119 0.445531 0.029516
0.345768 0.448159 0.031747
0.451320 0.451343 0.034415
0.552660 0.454940 0.037274
0.636853 0.459129 0.040473
0.705317 0.464595 0.043980
0.760821 0.471755 0.048153
0.809278 0.480827 0.053666
0.851015 0.492122 0.061355
0.885935 0.506156 0.072485
0.915192 0.523587 0.088943
0.938706 0.544999 0.113915
0.957553 0.570789 0.151704
0.969566 0.593848 0.189864
0.969566 0.593848 0.189864
0.969566 0.593848 0.189864
0.969566 0.593848 0.189864
0.969566 0.593848 0.189864
0.030715 0.547531 0.030715
0.030715 0.547531 0.030715
0.030715 0.547531 0.030715
0.030715 0.547531 0.030715
0.032142 0.547581 0.030759
0.034234 0.547650 0.030822
0.037050 0.547742 0.030903
0.041604 0.547879 0.031030
0.048314 0.548075 0.031212
0.058235 0.548362 0.031473
0.074349 0.548802 0.031885
0.099337 0.549460 0.032508
0.137552 0.550438 0.033440
0.192006 0.551816 0.034760
0.264207 0.553649 0.036521
0.355427 0.555999 0.038784
0.460029 0.558796 0.041486
0.561757 0.561778 0.044374
0.648980 0.564897 0.047614
0.719370 0.568526 0.051436
0.773871 0.573243 0.055873
0.819588 0.579482 0.061492
0.858740 0.587337 0.069217
0.892024 0.597061 0.080377
0.920195 0.609130 0.096919
0.942959 0.624048 0.122019
0.961232 0.642302 0.159852
0.972832 0.658763 0.197706
0.972832 0.658763 0.197706
0.972832 0.658763 0.197706
0.972832 0.658763 0.197706
0.972832 0.658763 0.197706
0.037763 0.641334 0.037763
0.037763 0.641334 0.037763
0.037763 0.641334 0.037763
0.037763 0.641334 0.037763
0.039439 0.641382 0.037815
0.041843 0.641447 0.037888
0.045011 0.641533 0.037980
0.049945 0.641661 0.038120
0.057079 0.641843 0.038317
0.067481 0.642107 0.038597
0.084247 0.642517 0.039036
0.110024 0.643134 0.039692
0.148857 0.644047 0.040661
0.203364 0.645323 0.042014
0.275274 0.647010 0.043813
0.365913 0.649159 0.046122
0.469208 0.651677 0.048875
0.569346 0.654286 0.051836
0.656832 0.656849 0.054932
0.729434 0.659463 0.059042
0.785517 0.662488 0.063968
0.830541 0.666493 0.070027
0.867236 0.671762 0.078007
0.898531 0.678388 0.089364
0.925297 0.686603 0.106175
0.947154 0.696736 0.131593
0.964811 0.709176 0.169579
0.976013 0.720471 0.207149
0.976013 0.720471 0.207149
0.976013 0.720471 0.207149
0.976013 0.720471 0.207149
0.976013 0.720471 0.207149
0.045606 0.719548 0.045606
0.045606 0.719548 0.045606
0.045606 0.719548 0.045606
0.045606 0.719548 0.045606
0.047597 0.719597 0.045668
0.050361 0.719662 0.045751
0.053901 0.719746 0.045857
0.059273 0.719872 0.046012
0.066919 0.720048 0.046230
0.077965 0.720303 0.046536
0.095588 0.720701 0.047009
0.122351 0.721297 0.047709
0.161874 0.722170 0.048725
0.216362 0.723372 0.050121
0.287853 0.724954 0.051970
0.377667 0.726954 0.054340
0.479210 0.729258 0.057158
0.577213 0.731583 0.060203
0.663220 0.733792 0.063425
0.735877 0.735895 0.067135
0.793806 0.737992 0.072604
0.840146 0.740464 0.079421
0.876090 0.743675 0.088137
0.905527 0.747870 0.100051
0.930563 0.753130 0.117363
0.951256 0.759636 0.143286
0.968182 0.767696 0.181426
0.978959 0.775056 0.218680
0.978959 0.775056 0.218680
0.978959 0.775056 0.218680
0.978959 0.775056 0.218680
0.978959 0.775056 0.218680
0.055171 0.782055 0.055171
0.055171 0.782055 0.055171
0.055171 0.782055 0.055171
0.055171 0.782055 0.055171
0.057475 0.782105 0.055243
0.060608 0.782175 0.055338
0.064563 0.782262 0.055457
0.070448 0.782391 0.055631
0.078739 0.782571 0.055872
0.090653 0.782830 0.056209
0.109378 0.783233 0.056723
0.137317 0.783830 0.057472
0.177456 0.784685 0.058533
0.231818 0.785843 0.059971
0.302697 0.787355 0.061866
0.391318 0.789254 0.064290
0.490500 0.791409 0.067164
0.585704 0.793540 0.070287
0.669747 0.795524 0.073646
0.741015 0.797355 0.077394
0.799029 0.799052 0.082396
0.846867 0.800787 0.090047
0.883773 0.802800 0.100020
0.912719 0.805436 0.113283
0.936143 0.808914 0.131631
0.955459 0.813302 0.158352
0.971492 0.818749 0.196470
0.981785 0.823684 0.233319
0.981785 0.823684 0.233319
0.981785 0.823684 0.233319
0.981785 0.823684 0.233319
0.981785 0.823684 0.233319
0.067912 0.833755 0.067912
0.067912 0.833755 0.067912
0.067912 0.833755 0.067912
0.067912 0.833755 0.067912
0.070549 0.833811 0.067994
0.074091 0.833885 0.068103
0.078526 0.833979 0.068237
0.085064 0.834118 0.068432
0.094210 0.834310 0.068700
0.107235 0.834583 0.069074
0.127350 0.835004 0.069637
0.156550 0.835612 0.070438
0.196974 0.836453 0.071540
0.251020 0.837579 0.073021
0.321000 0.839039 0.074963
0.407874 0.840857 0.077438
0.503860 0.842884 0.080363
0.595441 0.844858 0.083565
0.676920 0.846675 0.087073
0.746338 0.848315 0.091050
0.803290 0.849790 0.095786
0.851170 0.851193 0.103152
0.889237 0.852604 0.114537
0.919001 0.854251 0.129884
0.941909 0.856409 0.150379
0.959940 0.859252 0.178240
0.974888 0.862834 0.216089
0.984563 0.866058 0.252338
0.984563 0.866058 0.252338
0.984563 0.866058 0.252338
0.984563 0.866058 0.252338
0.984563 0.866058 0.252338
0.085992 0.875083 0.085992
0.085992 0.875083 0.085992
0.085992 0.875083 0.085992
0.085992 0.875083 0.085992
0.089037 0.875146 0.086086
0.093104 0.875230 0.086211
0.098182 0.875335 0.086366
0.105564 0.875487 0.086587
0.115778 0.875697 0.086890
0.130170 0.875994 0.087308
0.151815 0.876438 0.087926
0.181678 0.877052 0.088773
0.222057 0.877881 0.089919
0.275451 0.878977 0.091446
0.344092 0.880389 0.093442
0.428313 0.882126 0.095972
0.519909 0.884026 0.098956
0.606861 0.885855 0.102265
0.685055 0.887537 0.105976
0.752061 0.889034 0.110265
0.807618 0.890355 0.115451
0.854621 0.891575 0.122054
0.892691 0.892712 0.133512
0.923384 0.893875 0.151111
0.946840 0.895231 0.174528
0.964475 0.896998 0.204115
0.978407 0.899330 0.241983
0.987365 0.901478 0.277499
0.987365 0.901478 0.277499
0.987365 0.901478 0.277499
0.987365 0.901478 0.277499
0.987365 0.901478 0.277499
0.113322 0.908653 0.113322
0.113322 0.908653 0.113322
0.113322 0.908653 0.113322
0.113322 0.908653 0.113322
0.116876 0.908725 0.113432
0.121580 0.908821 0.113577
0.127409 0.908940 0.113756
0.135777 0.909110 0.114010
0.147218 0.909344 0.114352
0.162828 0.909662 0.114817
0.184997 0.910113 0.115478
0.214894 0.910722 0.116366
0.254789 0.911535 0.117559
0.307004 0.912599 0.119136
0.373666 0.913959 0.121193
0.453786 0.915596 0.123776
0.539382 0.917354 0.126820
0.620577 0.919037 0.130256
0.694630 0.920595 0.134208
0.758534 0.921975 0.138863
0.812337 0.923186 0.144580
0.858162 0.924283 0.151900
0.895513 0.925272 0.161601
0.926199 0.926217 0.179292
0.950321 0.927184 0.204532
0.968387 0.928307 0.236428
0.981963 0.929769 0.275607
0.990285 0.931189 0.310702
0.990285 0.931189 0.310702
0.990285 0.931189 0.310702
0.990285 0.931189 0.310702
0.990285 0.931189 0.310702
0.154954 0.935486 0.154954
0.154954 0.935486 0.154954
0.154954 0.935486 0.154954
0.154954 0.935486 0.154954
0.158964 0.935568 0.155079
0.164199 0.935674 0.155241
0.170549 0.935803 0.155439
0.179457 0.935983 0.155715
0.191266 0.936223 0.156081
0.207036 0.936543 0.156570
0.229038 0.936988 0.157255
0.258427 0.937583 0.158172
0.297217 0.938370 0.159393
0.347557 0.939391 0.161002
0.411027 0.940679 0.163086
0.485144 0.942185 0.165669
0.562858 0.943771 0.168714
0.637176 0.945297 0.172215
0.706108 0.946727 0.176320
0.766145 0.947994 0.181209
0.817717 0.949113 0.187236
0.862012 0.950116 0.194885
0.898401 0.950999 0.204817
0.928500 0.951808 0.217962
0.952570 0.952584 0.242216
0.971157 0.953382 0.275533
0.985003 0.954307 0.316685
0.993117 0.955192 0.352592
0.993117 0.955192 0.352592
0.993117 0.955192 0.352592
0.993117 0.955192 0.352592
0.993117 0.955192 0.352592
0.213973 0.956746 0.213973
0.213973 0.956746 0.213973
0.213973 0.956746 0.213973
0.213973 0.956746 0.213973
0.217994 0.956828 0.214099
0.223232 0.956933 0.214262
0.229552 0.957060 0.214459
0.238360 0.957239 0.214733
0.249985 0.957474 0.215097
0.265396 0.957785 0.215579
0.286556 0.958213 0.216247
0.314718 0.958781 0.217142
0.351593 0.959527 0.218326
0.398854 0.960483 0.219877
0.456864 0.961657 0.221855
0.522543 0.962988 0.224272
0.590633 0.964372 0.227127
0.657107 0.965730 0.230471
0.719900 0.967021 0.234449
0.775280 0.968175 0.239228
0.824051 0.969210 0.245162
0.866387 0.970137 0.252693
0.901545 0.970945 0.262438
0.930862 0.971671 0.275254
0.954417 0.972330 0.292118
0.972967 0.972979 0.323627
0.987166 0.973656 0.365345
0.995426 0.974251 0.402369
0.995426 0.974251 0.402369
0.995426 0.974251 0.402369
0.995426 0.974251 0.402369
0.995426 0.974251 0.402369
0.291518 0.973701 0.291519
0.291518 0.973701 0.291519
0.291518 0.973701 0.291519
0.291518 0.973701 0.291519
0.295342 0.973777 0.291638
0.300325 0.973878 0.291793
0.306326 0.974000 0.291980
0.314639 0.974167 0.292241
0.325612 0.974388 0.292585
0.340096 0.974681 0.293042
0.359678 0.975075 0.293665
0.385465 0.975596 0.294496
0.418953 0.976272 0.295593
0.460901 0.977119 0.297008
0.510414 0.978119 0.298777
0.565437 0.979233 0.300929
0.622866 0.980397 0.303499
0.680663 0.981573 0.306572
0.736294 0.982712 0.310272
0.786317 0.983745 0.314759
0.831657 0.984694 0.320364
0.871527 0.985547 0.327481
0.905137 0.986292 0.336668
0.933443 0.986955 0.348696
0.956332 0.987541 0.364426
0.974477 0.988073 0.384930
0.988611 0.988619 0.422920
0.997044 0.989065 0.459392
0.997044 0.989065 0.459392
0.997044 0.989065 0.459392
0.997044 0.989065 0.459392
0.997044 0.989065 0.459392
0.362190 0.984312 0.362190
0.362190 0.984312 0.362190
0.362190 0.984312 0.362190
0.362190 0.984312 0.362190
0.365783 0.984384 0.362302
0.370441 0.984478 0.362447
0.376045 0.984591 0.362622
0.383818 0.984748 0.362866
0.394004 0.984953 0.363186
0.407428 0.985223 0.363610
0.425775 0.985594 0.364196
0.449211 0.986066 0.364960
0.478549 0.986657 0.365947
0.514189 0.987377 0.367198
0.555770 0.988217 0.368758
0.601686 0.989145 0.370659
0.650625 0.990136 0.372965
0.701327 0.991166 0.375770
