Assets/CourseSource/TipsAndtricks/Lut_Files/Sources/UnityLog_And_ACES_Photoshop.CUBE
#Created by: Adobe Photoshop Export Color Lookup Plugin
TITLE "LUT_Post_1.psd"
#LUT size
LUT_3D_SIZE 5
#data domain
#LUT data points
DOMAIN_MIN 0.000000 0.000000 0.000000
DOMAIN_MAX 0.903226 0.903226 0.903226
0.000000 0.000000 0.000000
0.007202 0.000153 0.000156
0.177421 0.004192 0.003830
0.776504 0.030439 0.024937
0.951105 0.217498 0.158953
0.000382 0.007122 0.000382
0.007383 0.007383 0.000554
0.181490 0.012223 0.004390
0.777469 0.045721 0.025946
0.952334 0.242726 0.160775
0.012221 0.230247 0.012221
0.020546 0.230688 0.012456
0.237794 0.237810 0.017569
0.793387 0.285865 0.040679
0.963150 0.464051 0.177638
0.067912 0.833755 0.067912
0.085064 0.834118 0.068432
0.321000 0.839039 0.074963
0.851170 0.851193 0.103152
0.984563 0.866058 0.252338
0.362190 0.984312 0.362190
0.383818 0.984748 0.362866
0.555770 0.988217 0.368758
0.876016 0.994780 0.395192
0.997933 0.997939 0.506254
0.000028 0.000028 0.006545
0.006795 0.000175 0.006795
0.179673 0.004258 0.010628
0.776784 0.031125 0.031429
0.951245 0.220254 0.159177
0.000413 0.007136 0.007136
0.006867 0.006867 0.006867
0.182154 0.012277 0.011339
0.777717 0.046566 0.032553
0.952472 0.245441 0.160996
0.012267 0.230334 0.020303
0.020606 0.230775 0.020606
0.237886 0.237900 0.026375
0.793345 0.287097 0.048418
0.963247 0.465980 0.177809
0.068015 0.833826 0.084623
0.085173 0.834189 0.085173
0.321119 0.839112 0.091998
0.851271 0.851281 0.121151
0.984563 0.866213 0.252369
0.362323 0.984398 0.383281
0.383950 0.984834 0.383951
0.555883 0.988302 0.389783
0.876101 0.994863 0.415731
0.997957 0.997960 0.510182
0.000883 0.000883 0.213362
0.007326 0.001035 0.213755
0.220708 0.005721 0.220708
0.779883 0.031761 0.248935
0.952336 0.225673 0.346526
0.001277 0.007684 0.214341
0.007931 0.007931 0.214743
0.221740 0.013410 0.221740
0.780837 0.047127 0.250346
0.953558 0.250810 0.348339
0.013258 0.231732 0.231732
0.021734 0.232176 0.232176
0.239311 0.239311 0.239311
0.794650 0.288344 0.268753
0.964246 0.470185 0.365032
0.069297 0.834794 0.314694
0.086514 0.835158 0.315289
0.322552 0.840084 0.322552
0.852244 0.852253 0.354005
0.985227 0.867278 0.436480
0.363489 0.985086 0.551401
0.385105 0.985521 0.551976
0.556838 0.988981 0.556838
0.876768 0.995505 0.574814
0.998441 0.998443 0.629872
0.003877 0.003877 0.792410
0.011547 0.004078 0.792583
0.227486 0.008954 0.797122
0.810660 0.028642 0.810660
0.954893 0.221144 0.828087
0.004382 0.011956 0.792846
0.012237 0.012237 0.793027
0.228573 0.017870 0.797608
0.811365 0.042342 0.811365
0.956115 0.246451 0.829348
0.016874 0.238593 0.804256
0.026405 0.239057 0.804477
0.246218 0.246218 0.809197
0.823302 0.280508 0.823302
0.966832 0.468164 0.840450
0.074410 0.837247 0.837246
0.092112 0.837620 0.837619
0.328854 0.842549 0.842549
0.854556 0.854556 0.854556
0.986854 0.869318 0.863186
0.368815 0.986447 0.866723
0.390332 0.986880 0.867168
0.560468 0.990302 0.870719
0.878211 0.996741 0.878210
0.999484 0.999486 0.886372
0.012436 0.012437 0.933144
0.025239 0.012815 0.933407
0.252037 0.018638 0.938028
0.813414 0.042653 0.949958
0.958316 0.154439 0.958316
0.013379 0.025868 0.933800
0.026298 0.026297 0.934068
0.253356 0.032591 0.938716
0.814276 0.059616 0.950779
0.959565 0.180255 0.959565
0.028052 0.263531 0.945353
0.042020 0.264078 0.945647
0.271378 0.271379 0.950386
0.826540 0.304776 0.962643
0.971093 0.418663 0.971092
0.092717 0.839698 0.974015
0.112947 0.840122 0.974422
0.351782 0.845091 0.979233
0.856647 0.856647 0.989491
0.992860 0.866669 0.992860
0.390851 0.987421 0.987420
0.411839 0.987843 0.987843
0.573269 0.991091 0.991090
0.879875 0.997301 0.997301
1.000000 1.000000 1.000000
